X: 100218
M: C|
L: 1/8
K: Gm
ud |\
(.f>.e)(~d>c) B>GF<e | (.d>.c)(B>A) {^F}G2G :|
|: u^f |\
f<d(e>=e) (=f>c)c>^f | g<d(d>g) (d<b)a>g |\
(.[bf]>.e)(~d>c) B>GF<e | (.d>.c)(B>A) "^Segue Reel."{^F}G2G :|


